X: 2688
T: Banks Of Inverness, The
R: polka
M: 2/4
K: Amajor
|:E>F EC|EF A>B|ce Bc/B/|AF dF|
E>F EC|EF A>B|ce Bc/B/|1 A2 AF:|2 A2||
AB|ce ec|df fe|ce Bc/B/|AF FE|
ce ec|df f>g|af ge|f2 fg|
af ge|f/g/f/e/ cB|ce Bc/B/|AF dF|
E>F EC|EF A>B|ce Bc/B/|A2||
AB|ce ce|ce e2|fe ce|fe cB|
ce ce|ce ea/g/|fe cB|BA AE|
Ac e>=g|fe d>f|ec AB/c/|BA FE|
Ac e>=g|fe d>f|ec AF|FE E2||

